src/16/panel/btsync-gui-8.svg

<svg xmlns="http://www.w3.org/2000/svg" width="16" height="16" version="1.1">
 <defs>
  <style id="current-color-scheme" type="text/css">
   .ColorScheme-Text { color:#dfdfdf; } .ColorScheme-Highlight { color:#5294e2; }
  </style>
 </defs>
 <path style="fill:currentColor" class="ColorScheme-Text" d="M 14.999999,7.9999994 C 15,4.1342501 11.86575,1.0000002 7.9999999,1 4.13425,0.99999994 0.99999935,4.1342504 0.99999965,8 1.0000004,11.86575 4.1342501,15.000001 8.0000012,15 11.86575,15 15,11.86575 14.999999,7.9999994 Z M 13,8.0000001 C 13,10.419003 11.282304,12.43717 8.9999987,12.900391 l 1.7e-6,1.099607 -3.0000006,-1.999997 2.9999998,-2.0000011 10e-8,0.8164061 C 10.162804,10.403281 11,9.304511 11,8.0000005 10.998744,7.2864901 10.743221,6.5967877 10.279297,6.0546875 L 11.3125,4.2636719 C 12.383212,5.2106479 12.99743,6.5706009 13,8.0000001 Z M 10,4 7.0000001,6.0000001 l -5e-7,-0.8164065 c -1.1628048,0.413124 -1.9999994,1.5118956 -2.0000003,2.8164069 0.00126,0.7135089 0.2567797,1.403212 0.720703,1.9453139 L 4.6875002,11.736328 C 3.6167877,10.789352 3.002601,9.4293986 3,8.0000002 2.9999991,5.5809966 4.7176961,3.5628306 6.9999992,3.0996092 L 7,2.0000002 10,4 Z"/>
</svg>

<svg xmlns="http://www.w3.org/2000/svg" width="16" height="16"><defs><style id="current-color-scheme" type="text/css"></style></defs><path d="M15 8A7 7 0 1 0 1 8a7 7 0 0 0 14 0zm-2 0a5.002 5.002 0 0 1-4 4.9V14l-3-2 3-2v.816A2.99 2.99 0 0 0 11 8a3 3 0 0 0-.72-1.945l1.033-1.791A5 5 0 0 1 13 8zm-3-4L7 6v-.816A2.99 2.99 0 0 0 5 8a3 3 0 0 0 .72 1.945l-1.032 1.791A5 5 0 0 1 3 8a5.002 5.002 0 0 1 4-4.9V2l3 2z" fill="currentColor" color="#dfdfdf"/></svg>
